public/static/icons/ic_evernote.svg

<svg height="24" viewBox="0 0 24 24" width="24" xmlns="http://www.w3.org/2000/svg"><path d="m14.8964945 11.352115c-.3227155-.01125-.6334785.009-.923325.0555.081426-.660745.3533435-1.472235 1.3162615-1.438485 1.066007.0375 1.2154125 1.04849 1.2191475 1.73398-.44971-.201745-1.006245-.329245-1.612084-.350995m4.5583585-7.176685c-.1785395-.95774-.745533-1.429485-1.2587405-1.614735-.5528-.200995-1.6748345-.408745-3.084474-.575995-1.133987-.133495-2.466683-.122995-3.271978-.09825-.0963665-.66449-.5602705-1.271235-1.080201-1.481235-1.383494-.559495-3.522232-.424495-4.07055-.269995-.4362635.122245-.91959.373495-1.1885195.75974-.1800335.258-.29657.589495-.297317 1.05149 0 .26175.0074705.877495.0134465 1.42499.0067235.548995.0141935 1.04024.0141935 1.04399 0 .488245-.395177.88649-.8844795.88724h-2.243322c-.4788445 0-.8448875.081-1.1235285.20775-.280135.12825-.4780975.299995-.6289965.503245-.299558.404245-.35185.90224-.35038662 1.410735 0 0 .00451312.41625.10461462 1.22024.08292.622495.755244 4.971705 1.393952 6.293945.247266.514495.412359.72899.8986735.95549 1.083936.466495 3.5603305.98474 4.720463 1.13324 1.158639.148495 1.885496.461245 2.318772-.450745.001494-.00225.086655-.22725.203938-.556495.3765015-1.14449.4287935-2.15998.4287935-2.894225 0-.075.109066-.078.109066 0 0 .518245-.0986075 2.35423 1.2826455 2.846975.5453295.194245 1.676328.366745 2.8252555.502495 1.0391145.12 1.793612.530245 1.793612 3.20697 0 1.628235-.3406445 1.851735-2.1215565 1.851735-1.4440035 0-1.994562.037495-1.994562-1.11374 0-.930745.917349-.833245 1.5963965-.833245.30404 0 .083667-.2265.083667-.80099 0-.571495.355585-.901495.0194225-.909745-2.3501465-.06525-3.7328935-.003-3.7328935 2.947475 0 2.678975 1.021186 3.17622 4.355914 3.17622 2.6153415 0 3.5371725-.08625 4.6166265-3.44922.2136495-.66449.7305925-2.690225 1.0428495-6.092945.1979625-2.15098-.1860095-8.64367-.4907965-10.282405m-17.4572725.473245h.001494 2.243322c.1284885 0 .2323255-.105745.2323255-.233245 0-.00075-.026893-1.931235-.026893-2.46823v-.00675c0-.440995.0918845-.82499.252495-1.14749l.076944-.143995c-.0089645.00075-.017182.00525-.026146.0135l-4.358902 4.34021c-.0082175.00675-.0141935.0165-.016435.0255.0903905-.045.21365-.10575.2308315-.11325.3794895-.1725.8396585-.26625 1.390964-.26625" fill="#20c05c" transform="translate(2)"/></svg>

<svg xmlns="http://www.w3.org/2000/svg" width="24" height="24" viewBox="0 0 24 24">
  <path fill="#20C05C" d="M14.8964945,11.352115 C14.573779,11.340865 14.263016,11.361115 13.9731695,11.407615 C14.0545955,10.74687 14.326513,9.93538 15.289431,9.96913 C16.355438,10.00663 16.5048435,11.01762 16.5085785,11.70311 C16.0588685,11.501365 15.5023335,11.373865 14.8964945,11.352115 M19.454853,4.17543 C19.2763135,3.21769 18.70932,2.745945 18.1961125,2.560695 C17.6433125,2.3597 16.521278,2.15195 15.1116385,1.9847 C13.9776515,1.851205 12.6449555,1.861705 11.8396605,1.88645 C11.743294,1.22196 11.27939,0.615215 10.7594595,0.405215 C9.3759655,-0.15428 7.2372275,-0.01928 6.6889095,0.13522 C6.252646,0.257465 5.7693195,0.508715 5.50039,0.89496 C5.3203565,1.15296 5.20382,1.484455 5.203073,1.94645 C5.203073,2.2082 5.2105435,2.823945 5.2165195,3.37144 C5.223243,3.920435 5.230713,4.41168 5.230713,4.41543 C5.230713,4.903675 4.835536,5.30192 4.3462335,5.30267 L2.1029115,5.30267 C1.624067,5.30267 1.258024,5.38367 0.979383,5.51042 C0.699248,5.63867 0.5012855,5.810415 0.3503865,6.013665 C0.0508285,6.41791 -0.0014635,6.915905 -1.24035807e-07,7.4244 C-1.24035807e-07,7.4244 0.004513,7.84065 0.1046145,8.64464 C0.1875345,9.267135 0.8598585,13.616345 1.4985665,14.938585 C1.7458325,15.45308 1.9109255,15.667575 2.39724,15.894075 C3.481176,16.36057 5.9575705,16.878815 7.117703,17.027315 C8.276342,17.17581 9.003199,17.48856 9.436475,16.57657 C9.437969,16.57432 9.52313,16.34932 9.640413,16.020075 C10.0169145,14.875585 10.0692065,13.860095 10.0692065,13.12585 C10.0692065,13.05085 10.1782725,13.04785 10.1782725,13.12585 C10.1782725,13.644095 10.079665,15.48008 11.460918,15.972825 C12.0062475,16.16707 13.137246,16.33957 14.2861735,16.47532 C15.325288,16.59532 16.0797855,17.005565 16.0797855,19.68229 C16.0797855,21.310525 15.739141,21.534025 13.958229,21.534025 C12.5142255,21.534025 11.963667,21.57152 11.963667,20.420285 C11.963667,19.48954 12.881016,19.58704 13.5600635,19.58704 C13.8641035,19.58704 13.6437305,19.36054 13.6437305,18.78605 C13.6437305,18.214555 13.9993155,17.884555 13.663153,17.876305 C11.3130065,17.811055 9.9302595,17.873305 9.9302595,20.82378 C9.9302595,23.502755 10.9514455,24 14.2861735,24 C16.901515,24 17.823346,23.91375 18.9028,20.55078 C19.1164495,19.88629 19.6333925,17.860555 19.9456495,14.457835 C20.143612,12.306855 19.75964,5.814165 19.454853,4.17543 M1.9975805,4.648675 L1.9990745,4.648675 L4.2423965,4.648675 C4.370885,4.648675 4.474722,4.54293 4.474722,4.41543 C4.474722,4.41468 4.447829,2.484195 4.447829,1.9472 L4.447829,1.94045 C4.447829,1.499455 4.5397135,1.11546 4.700324,0.79296 L4.777268,0.648965 C4.7683035,0.649715 4.760086,0.654215 4.751122,0.662465 L0.39222,5.002675 C0.3840025,5.009425 0.3780265,5.019175 0.375785,5.028175 C0.4661755,4.983175 0.589435,4.922425 0.6066165,4.914925 C0.986106,4.742425 1.446275,4.648675 1.9975805,4.648675" transform="translate(2)"/>
</svg>
